eject-circle.svg

<svg fill="currentColor" viewBox="0 0 24 24"><path d="M12 2C6.5 2 2 6.5 2 12s4.5 10 10 10 10-4.5 10-10S17.5 2 12 2m4.5 14h-9v-2h9zm-9-4L12 6l4.5 6z"/></svg>

<svg  viewBox="0 0 24 24" fill="currentColor"><path  d="M12 2C6.5 2 2 6.5 2 12S6.5 22 12 22 22 17.5 22 12 17.5 2 12 2M16.5 16H7.5V14H16.5V16M7.5 12L12 6L16.5 12H7.5Z"/></svg>
